packages/blockchain-info-components/src/Images/img/buy-white-circle.svg

<svg fill="none" height="25" viewBox="0 0 25 25" width="25" xmlns="http://www.w3.org/2000/svg"><circle cx="12.6875" cy="12.4999" fill="#fff" r="12"/><path d="m12.4363 6.49988c-.4142 0-.75.33578-.75.75v4.24882h-4.2488c-.41421 0-.75.3357-.75.75v.5025c0 .4142.33579.75.75.75h4.2488v4.2487c0 .4142.3358.75.75.75h.5025c.4142 0 .75-.3358.75-.75v-4.2487h4.2487c.4142 0 .75-.3358.75-.75v-.5025c0-.4143-.3358-.75-.75-.75h-4.2487v-4.24882c0-.41422-.3358-.75-.75-.75z" fill="#0c6cf2"/></svg>

<svg width="25" height="25" viewBox="0 0 25 25" fill="none" xmlns="http://www.w3.org/2000/svg">
<circle cx="12.6875" cy="12.4999" r="12" fill="white"/>
<path d="M12.4363 6.49988C12.0221 6.49988 11.6863 6.83566 11.6863 7.24988V11.4987H7.4375C7.02329 11.4987 6.6875 11.8344 6.6875 12.2487V12.7512C6.6875 13.1654 7.02329 13.5012 7.4375 13.5012H11.6863V17.7499C11.6863 18.1641 12.0221 18.4999 12.4363 18.4999H12.9388C13.353 18.4999 13.6888 18.1641 13.6888 17.7499V13.5012H17.9375C18.3517 13.5012 18.6875 13.1654 18.6875 12.7512V12.2487C18.6875 11.8344 18.3517 11.4987 17.9375 11.4987H13.6888V7.24988C13.6888 6.83566 13.353 6.49988 12.9388 6.49988H12.4363Z" fill="#0C6CF2"/>
</svg>
